src/16/actions/snap-orthogonal.svg

<svg xmlns="http://www.w3.org/2000/svg" width="16" height="16"><defs><style id="current-color-scheme" type="text/css"></style></defs><path d="M6 2v3h1V2H6zm0 4v1h1V6H6zM5 8v3h3V8H5zM1 9v1h1V9H1zm2 0v1h1V9H3zm6 0v1h1V9H9zm2 0v1h3V9h-3zm-5 3v1h1v-1H6zm0 2v1h1v-1H6z" fill="currentColor" color="#565656"/></svg>

<svg xmlns="http://www.w3.org/2000/svg" width="16" height="16" viewBox="0 0 16 16">
 <defs>
  <style id="current-color-scheme" type="text/css">
   .ColorScheme-Text { color:#565656; } .ColorScheme-Highlight { color:#5294e2; }
  </style>
 </defs>
 <path style="fill:currentColor" class="ColorScheme-Text" d="M 6 2 L 6 5 L 7 5 L 7 2 L 6 2 z M 6 6 L 6 7 L 7 7 L 7 6 L 6 6 z M 5 8 L 5 11 L 8 11 L 8 8 L 5 8 z M 1 9 L 1 10 L 2 10 L 2 9 L 1 9 z M 3 9 L 3 10 L 4 10 L 4 9 L 3 9 z M 9 9 L 9 10 L 10 10 L 10 9 L 9 9 z M 11 9 L 11 10 L 14 10 L 14 9 L 11 9 z M 6 12 L 6 13 L 7 13 L 7 12 L 6 12 z M 6 14 L 6 15 L 7 15 L 7 14 L 6 14 z"/>
</svg>
